src/icons/svg/badge-first.svg

<?xml version="1.0" encoding="UTF-8" standalone="no"?>
<svg
   xmlns:dc="http://purl.org/dc/elements/1.1/"
   xmlns:cc="http://creativecommons.org/ns#"
   xmlns:rdf="http://www.w3.org/1999/02/22-rdf-syntax-ns#"
   xmlns:svg="http://www.w3.org/2000/svg"
   xmlns="http://www.w3.org/2000/svg"
   xmlns:sodipodi="http://sodipodi.sourceforge.net/DTD/sodipodi-0.dtd"
   xmlns:inkscape="http://www.inkscape.org/namespaces/inkscape"
   version="1.1"
   id="svg4587"
   viewBox="0 0 40 40"
   height="40"
   width="40"
   inkscape:version="0.91 r13725"
   sodipodi:docname="badge-first.svg">
  <sodipodi:namedview
     pagecolor="#ffffff"
     bordercolor="#666666"
     borderopacity="1"
     objecttolerance="10"
     gridtolerance="10"
     guidetolerance="10"
     inkscape:pageopacity="0"
     inkscape:pageshadow="2"
     inkscape:window-width="1105"
     inkscape:window-height="480"
     id="namedview7765"
     showgrid="false"
     inkscape:zoom="5.9"
     inkscape:cx="20"
     inkscape:cy="20"
     inkscape:window-x="725"
     inkscape:window-y="485"
     inkscape:window-maximized="0"
     inkscape:current-layer="svg4587" />
  <metadata
     id="metadata4595">
    <rdf:RDF>
      <cc:Work
         rdf:about="">
        <dc:format>image/svg+xml</dc:format>
        <dc:type
           rdf:resource="http://purl.org/dc/dcmitype/StillImage" />
        <dc:title></dc:title>
      </cc:Work>
    </rdf:RDF>
  </metadata>
  <defs
     id="defs4593" />
  <path
     id="path5844-3"
     d="m 14.315421,18.373167 q -0.166356,-0.06959 -0.398211,-0.04463 -0.298397,-0.0029 -0.660721,0.272315 -0.362326,0.275203 -0.624839,0.59216 l -9.3988907,13.56579 q -0.261989,0.378141 -0.292121,0.731335 -0.03014,0.353193 0.07124,0.5785 0.100856,0.164128 0.267211,0.233715 0.365985,0.153092 0.861395,-0.06644 l 6.3717067,-3.12651 0.182716,5.868246 q 0.03693,0.442214 0.369639,0.581388 0.166356,0.06959 0.398212,0.04463 0.331144,-0.04438 0.693993,-0.258399 0.362848,-0.214018 0.591567,-0.606076 L 22.147209,23.17339 q 0.261989,-0.378141 0.325407,-0.717413 0.06341,-0.339274 -0.104517,-0.592416 -0.100855,-0.164127 -0.267211,-0.233714 l -7.785456,-3.256681 z"
     style="fill:#444444" />
  <path
     id="path5844"
     d="m 27.114592,18.456064 q 0.166356,-0.06959 0.398211,-0.04463 0.298397,-0.0029 0.660721,0.272315 0.362326,0.275203 0.624839,0.59216 l 9.39889,13.565791 q 0.261989,0.378141 0.292121,0.731335 0.03014,0.353193 -0.07124,0.5785 -0.100856,0.164128 -0.267211,0.233715 -0.365985,0.153092 -0.861395,-0.06644 l -6.371707,-3.12651 -0.182716,5.868246 q -0.03693,0.442214 -0.369639,0.581388 -0.166356,0.06959 -0.398212,0.04463 -0.331144,-0.04438 -0.693993,-0.258399 -0.362847,-0.214018 -0.591566,-0.606076 L 19.282804,23.256288 q -0.261989,-0.378141 -0.325407,-0.717413 -0.06341,-0.339274 0.104517,-0.592416 0.100855,-0.164127 0.267211,-0.233714 l 7.785456,-3.256682 z"
     style="fill:#444444" />
  <path
     style="fill:#ffffff;fill-opacity:1"
     id="path4589-4"
     d="m 31.56651,15.59152 2.640905,2.555716 q 0.596335,0.511143 0.340763,1.363049 -0.170381,0.766713 -0.937096,0.937095 l -3.578004,0.937096 1.022288,3.492812 q 0.170381,0.851906 -0.425953,1.36305 -0.511143,0.596332 -1.277857,0.34076 l -3.578003,-1.022285 -0.851907,3.578003 q -0.255571,0.766714 -1.022286,1.022286 -0.255572,0 -0.340762,0 -0.596334,0 -0.937095,-0.340762 l -2.640908,-2.640907 -2.555717,2.640907 q -0.511143,0.511143 -1.277857,0.340762 -0.766715,-0.170382 -1.022286,-1.022286 L 14.27283,25.558813 10.694826,26.581098 Q 9.9281116,26.83667 9.3317786,26.240338 8.7354436,25.729194 8.9910156,24.877288 L 10.013303,21.384476 6.4353006,20.44738 q -0.766716,-0.170382 -1.022287,-0.937095 -0.170382,-0.851906 0.425952,-1.363049 l 2.640907,-2.555716 -2.640907,-2.555716 q -0.596334,-0.511144 -0.425952,-1.36305 0.255571,-0.766715 1.022287,-0.937096 L 10.013303,9.7985635 8.9910156,6.3057514 Q 8.7354436,5.4538461 9.3317786,4.9427029 9.9281116,4.3463689 10.694826,4.6019407 l 3.578004,1.0222865 0.851905,-3.5780027 q 0.255571,-0.8519056 1.022286,-1.0222866 0.766714,-0.17038112 1.277857,0.3407623 l 2.555717,2.6409067 2.640908,-2.6409067 q 0.511142,-0.51114342 1.277857,-0.3407623 0.766715,0.170381 1.022286,1.0222866 l 0.851907,3.5780027 3.578003,-1.0222865 q 0.766714,-0.2555718 1.277857,0.3407622 0.596334,0.5111432 0.425953,1.3630485 l -1.022288,3.4928121 3.578004,0.9370945 q 0.766715,0.170381 0.937096,0.937096 0.255572,0.851906 -0.340763,1.36305 z" />
  <path
     style="fill:#444444"
     id="path4589"
     d="m 30.226034,15.597471 2.334843,2.259527 q 0.527224,0.451905 0.301271,1.205081 -0.150635,0.677857 -0.828493,0.828493 l -3.163339,0.828493 0.903812,3.08802 q 0.150635,0.753176 -0.376588,1.205082 -0.451905,0.527222 -1.129763,0.301269 l -3.163338,-0.90381 -0.753177,3.163338 q -0.225952,0.677858 -0.90381,0.903811 -0.225953,0 -0.30127,0 -0.527223,0 -0.828493,-0.30127 l -2.334845,-2.334845 -2.259528,2.334845 q -0.451905,0.451905 -1.129763,0.30127 -0.677858,-0.150636 -0.90381,-0.903811 l -0.753175,-3.163338 -3.163339,0.90381 q -0.677858,0.225953 -1.20508,-0.301269 -0.527224,-0.451906 -0.301271,-1.205082 l 0.903811,-3.08802 -3.1633372,-0.828493 q -0.677859,-0.150636 -0.903811,-0.828493 -0.150635,-0.753176 0.376588,-1.205081 l 2.334844,-2.259527 -2.334844,-2.259527 q -0.527223,-0.451906 -0.376588,-1.205081 0.225952,-0.677859 0.903811,-0.828494 L 11.170689,10.475876 10.266878,7.3878564 q -0.225953,-0.753176 0.301271,-1.2050811 0.527222,-0.5272231 1.20508,-0.3012703 l 3.163339,0.9038104 0.753175,-3.1633374 q 0.225952,-0.7531757 0.90381,-0.9038108 0.677858,-0.1506351 1.129763,0.3012703 l 2.259528,2.3348445 2.334845,-2.3348445 q 0.451905,-0.4519054 1.129763,-0.3012703 0.677858,0.1506351 0.90381,0.9038108 l 0.753177,3.1633374 3.163338,-0.9038104 q 0.677858,-0.2259528 1.129763,0.3012703 0.527223,0.4519051 0.376588,1.2050811 l -0.903812,3.0880196 3.163339,0.828493 q 0.677858,0.150635 0.828493,0.828494 0.225953,0.753175 -0.301271,1.205081 z" />
  <g
     style="font-style:normal;font-weight:normal;font-size:7.5px;line-height:125%;font-family:sans-serif;letter-spacing:0px;word-spacing:0px;fill:#ffffff;fill-opacity:1;stroke:none;stroke-width:1px;stroke-linecap:butt;stroke-linejoin:miter;stroke-opacity:1"
     id="text6456">
    <path
       d="m 16.703186,20.007055 2.618408,0 0,-9.037475 -2.848511,0.571289 0,-1.459961 2.832642,-0.5712892 1.602783,0 0,10.4974362 2.618409,0 0,1.348877 -6.823731,0 0,-1.348877 z"
       id="path8308" />
  </g>
</svg>

<?xml version="1.0" encoding="UTF-8" standalone="no"?>
<svg
   xmlns:dc="http://purl.org/dc/elements/1.1/"
   xmlns:cc="http://creativecommons.org/ns#"
   xmlns:rdf="http://www.w3.org/1999/02/22-rdf-syntax-ns#"
   xmlns:svg="http://www.w3.org/2000/svg"
   xmlns="http://www.w3.org/2000/svg"
   xmlns:sodipodi="http://sodipodi.sourceforge.net/DTD/sodipodi-0.dtd"
   xmlns:inkscape="http://www.inkscape.org/namespaces/inkscape"
   version="1.1"
   id="svg4587"
   viewBox="0 0 40 40"
   height="40"
   width="40"
   inkscape:version="0.91 r13725"
   sodipodi:docname="badge-first.svg">
  <sodipodi:namedview
     pagecolor="#ffffff"
     bordercolor="#666666"
     borderopacity="1"
     objecttolerance="10"
     gridtolerance="10"
     guidetolerance="10"
     inkscape:pageopacity="0"
     inkscape:pageshadow="2"
     inkscape:window-width="1680"
     inkscape:window-height="1013"
     id="namedview7765"
     showgrid="false"
     inkscape:zoom="5.9"
     inkscape:cx="20"
     inkscape:cy="20"
     inkscape:window-x="1920"
     inkscape:window-y="1024"
     inkscape:window-maximized="1"
     inkscape:current-layer="svg4587" />
  <metadata
     id="metadata4595">
    <rdf:RDF>
      <cc:Work
         rdf:about="">
        <dc:format>image/svg+xml</dc:format>
        <dc:type
           rdf:resource="http://purl.org/dc/dcmitype/StillImage" />
        <dc:title></dc:title>
      </cc:Work>
    </rdf:RDF>
  </metadata>
  <defs
     id="defs4593" />
  <g
     id="g4146">
    <path
       style="fill:#444444"
       d="M 30.224609 21.333984 L 30.033203 21.384766 L 31.054688 24.876953 C 31.168275 25.44489 31.026462 25.899472 30.628906 26.240234 C 30.288144 26.637789 29.862705 26.752413 29.351562 26.582031 L 25.773438 25.558594 L 24.921875 29.136719 C 24.766854 29.601783 24.462506 29.918591 24.025391 30.101562 L 28.681641 36.822266 C 28.83412 37.083638 29.03154 37.285056 29.273438 37.427734 C 29.515337 37.570414 29.746034 37.657913 29.966797 37.6875 C 30.121368 37.70414 30.25433 37.688971 30.365234 37.642578 C 30.58704 37.549795 30.709755 37.355356 30.734375 37.060547 L 30.917969 31.191406 L 37.289062 34.318359 C 37.619336 34.464714 37.906401 34.486827 38.150391 34.384766 C 38.261294 34.338374 38.350731 34.261762 38.417969 34.152344 C 38.485555 34.002139 38.510328 33.807728 38.490234 33.572266 C 38.470146 33.336803 38.371925 33.093891 38.197266 32.841797 L 30.224609 21.333984 z M 9.2070312 24.134766 L 3.2324219 32.759766 C 3.0577625 33.01186 2.9614942 33.254772 2.9414062 33.490234 C 2.921313 33.725696 2.9441321 33.918155 3.0117188 34.068359 C 3.078956 34.177778 3.1683935 34.256343 3.2792969 34.302734 C 3.5232869 34.404796 3.8103517 34.382683 4.140625 34.236328 L 10.511719 31.109375 L 10.695312 36.978516 C 10.719933 37.273325 10.842647 37.465811 11.064453 37.558594 C 11.175357 37.604987 11.30832 37.620156 11.462891 37.603516 C 11.683653 37.573929 11.914351 37.488382 12.15625 37.345703 C 12.398149 37.203024 12.595568 36.999653 12.748047 36.738281 L 17.835938 29.394531 L 17.425781 29.818359 C 17.085019 30.159121 16.657627 30.27179 16.146484 30.158203 C 15.635341 30.044615 15.295381 29.704655 15.125 29.136719 L 14.273438 25.558594 L 10.695312 26.582031 C 10.18417 26.752413 9.7295866 26.637789 9.3320312 26.240234 C 8.9344746 25.899472 8.819853 25.44489 8.9902344 24.876953 L 9.2070312 24.134766 z "
       id="path5844-3" />
  </g>
  <path
     style="fill:#444444"
     id="path4589"
     d="m 30.226034,15.597471 2.334843,2.259527 q 0.527224,0.451905 0.301271,1.205081 -0.150635,0.677857 -0.828493,0.828493 l -3.163339,0.828493 0.903812,3.08802 q 0.150635,0.753176 -0.376588,1.205082 -0.451905,0.527222 -1.129763,0.301269 l -3.163338,-0.90381 -0.753177,3.163338 q -0.225952,0.677858 -0.90381,0.903811 -0.225953,0 -0.30127,0 -0.527223,0 -0.828493,-0.30127 l -2.334845,-2.334845 -2.259528,2.334845 q -0.451905,0.451905 -1.129763,0.30127 -0.677858,-0.150636 -0.90381,-0.903811 l -0.753175,-3.163338 -3.163339,0.90381 q -0.677858,0.225953 -1.20508,-0.301269 -0.527224,-0.451906 -0.301271,-1.205082 l 0.903811,-3.08802 -3.1633372,-0.828493 q -0.677859,-0.150636 -0.903811,-0.828493 -0.150635,-0.753176 0.376588,-1.205081 l 2.334844,-2.259527 -2.334844,-2.259527 q -0.527223,-0.451906 -0.376588,-1.205081 0.225952,-0.677859 0.903811,-0.828494 L 11.170689,10.475876 10.266878,7.3878564 q -0.225953,-0.753176 0.301271,-1.2050811 0.527222,-0.5272231 1.20508,-0.3012703 l 3.163339,0.9038104 0.753175,-3.1633374 q 0.225952,-0.7531757 0.90381,-0.9038108 0.677858,-0.1506351 1.129763,0.3012703 l 2.259528,2.3348445 2.334845,-2.3348445 q 0.451905,-0.4519054 1.129763,-0.3012703 0.677858,0.1506351 0.90381,0.9038108 l 0.753177,3.1633374 3.163338,-0.9038104 q 0.677858,-0.2259528 1.129763,0.3012703 0.527223,0.4519051 0.376588,1.2050811 l -0.903812,3.0880196 3.163339,0.828493 q 0.677858,0.150635 0.828493,0.828494 0.225953,0.753175 -0.301271,1.205081 z" />
  <g
     style="font-style:normal;font-weight:normal;font-size:7.5px;line-height:125%;font-family:sans-serif;letter-spacing:0px;word-spacing:0px;fill:#ffffff;fill-opacity:1;stroke:none;stroke-width:1px;stroke-linecap:butt;stroke-linejoin:miter;stroke-opacity:1"
     id="text6456">
    <path
       d="m 16.703186,20.007055 2.618408,0 0,-9.037475 -2.848511,0.571289 0,-1.459961 2.832642,-0.5712892 1.602783,0 0,10.4974362 2.618409,0 0,1.348877 -6.823731,0 0,-1.348877 z"
       id="path8308" />
  </g>
</svg>
